**harm	**harte	**kern	**silbe	**kern	**silbe	**rhyme	**timestamp	**phrase	**leadinstrument
*M4/4	*M4/4	*ICvox	*	*ICvox	*	*	*	*	*
*	*	*VRlead*VRharmonize	*	*VRlead*VRharmonize	*	*	*	*	*
*	*	*Hstimme	*	*Nstimme	*	*	*	*	*
*a:	*a:	*C:	*	*C:	*	*	*a:	*a:	*a:
*	*	*M4/4	*	*M4/4	*	*	*	*	*
*	*	*clefG2	*	*clefG2	*	*	*	*	*
1r;	N	1r;	.	1r;	.	.	0	.	r
1r;	N	1r;	.	1r;	.	.	1.695	.	r
1r;	N	1r;	.	1r;	.	.	3.389	.	r
1r;	N	1r;	.	1r;	.	.	5.084	.	r
1r;	N	1r;	.	1r;	.	.	6.779	.	r
1r;	N	1r;	.	1r;	.	.	8.474	.	r
1r;	N	1r;	.	1r;	.	.	10.168	.	r
1r;	N	1r;	.	1r;	.	.	11.863	.	r
1r;	N	1r;	.	1r;	.	.	13.558	.	r
1r;	N	1r;	.	1r;	.	.	15.252	.	r
1r;	N	1r;	.	1r;	.	.	16.947	.	r
1r;	N	1r;	.	1r;	.	.	18.642	.	r
1r;	N	1r;	.	1r;	.	.	20.337	.	r
1r;	N	1r;	.	1r;	.	.	22.031	.	r
1r;	N	1r;	.	1r;	.	.	23.726	.	r
=1	=1	=1	=1	=1	=1	=1	=1	=1	=1
1-IIIc	C:maj/5	1r	.	1r	.	.	25.421	newline	acoustic guitar
=2	=2	=2	=2	=2	=2	=2	=2	=2	=2
1vio7	F#:hdim7	1r	.	1r	.	.	27.117	.	acoustic guitar
=3	=3	=3	=3	=3	=3	=3	=3	=3	=3
1V	E:maj	1r	.	1r	.	.	28.814	.	acoustic guitar
1r;	N	1r;	.	1r;	.	.	30.51	.	r
=4	=4	=4	=4	=4	=4	=4	=4	=4	=4
1iv	D:min	1r	.	1r	.	.	32.207	.	r
=5	=5	=5	=5	=5	=5	=5	=5	=5	=5
1V	E:maj	1r	.	1r	.	.	33.904	.	r
=6	=6	=6	=6	=6	=6	=6	=6	=6	=6
1r;	N	1r	.	1r	.	.	35.6	.	r
=6	=6	=6	=6	=6	=6	=6	=6	=6	=6
*>Letter>B	*>Letter>B	*>Letter>B	*>Letter>B	*>Letter>B	*>Letter>B	*>Letter>B	*>Letter>B	*>Letter>B	*>Letter>B
*>Label>Intro	*>Label>Intro	*>Label>Intro	*>Label>Intro	*>Label>Intro	*>Label>Intro	*>Label>Intro	*>Label>Intro	*>Label>Intro	*>Label>Intro
1i	A:min	1r	.	1r	.	.	37.297	newline	acoustic guitar
=7	=7	=7	=7	=7	=7	=7	=7	=7	=7
1-VI	F:maj	1r	.	1r	.	.	39.206	.	acoustic guitar
=8	=8	=8	=8	=8	=8	=8	=8	=8	=8
1i	A:min	1r	.	1r	.	.	41.114	.	acoustic guitar
=9	=9	=9	=9	=9	=9	=9	=9	=9	=9
2.-VI	F:maj	1r	.	1r	.	.	43.023	.	acoustic guitar
4-VII	G:maj	.	.	.	.	.	44.455	.	acoustic guitar
=10	=10	=10	=10	=10	=10	=10	=10	=10	=10
1i	A:min	1r	.	1r	.	.	44.932	newline	electric guitar
=11	=11	=11	=11	=11	=11	=11	=11	=11	=11
1-VI	F:maj	1r	.	1r	.	.	46.824	.	electric guitar
=12	=12	=12	=12	=12	=12	=12	=12	=12	=12
1i	A:min	1r	.	1r	.	.	48.717	.	electric guitar
=13	=13	=13	=13	=13	=13	=13	=13	=13	=13
2.-VI	F:maj	1r	.	1r	.	.	50.609	.	electric guitar
4-VII	G:maj	.	.	.	.	.	52.028	.	electric guitar
=14	=14	=14	=14	=14	=14	=14	=14	=14	=14
1i	A:min	1r	.	1r	.	.	52.501	newline	electric guitar
=15	=15	=15	=15	=15	=15	=15	=15	=15	=15
1-VII	G:maj	1r	.	1r	.	.	54.363	.	electric guitar
=16	=16	=16	=16	=16	=16	=16	=16	=16	=16
*	*	*clefF4	*	*	*	*	*	*	*
1-VI	F:maj	2r	.	1r	.	.	56.224	.	electric guitar
.	.	8r	.	.	.	.	.	.	.
.	.	8A	We	.	.	.	.	.	.
.	.	4c	may	.	.	.	.	.	.
=17	=17	=17	=17	=17	=17	=17	=17	=17	=17
*>Letter>C	*>Letter>C	*>Letter>C	*>Letter>C	*>Letter>C	*>Letter>C	*>Letter>C	*>Letter>C	*>Letter>C	*>Letter>C
*>Label>Verse	*>Label>Verse	*>Label>Verse	*>Label>Verse	*>Label>Verse	*>Label>Verse	*>Label>Verse	*>Label>Verse	*>Label>Verse	*>Label>Verse
1i	A:min	8e-	still	1r	.	.	58.086	newline	voice
.	.	4d	have	.	.	.	.	.	.
.	.	8c	time,	.	.	A	.	.	.
.	.	4d	_	.	.	.	.	.	.
.	.	8A	we	.	.	.	.	.	.
.	.	[8c	might	.	.	.	.	.	.
=18	=18	=18	=18	=18	=18	=18	=18	=18	=18
1-III	C:maj	8c]	_	1r	.	.	59.975	.	voice
.	.	8e	still	.	.	.	.	.	.
.	.	8d	get	.	.	.	.	.	.
.	.	[8c	by	.	.	A	.	.	.
.	.	8c]	_	.	.	.	.	.	.
.	.	8r	.	.	.	.	.	.	.
.	.	16r	.	.	.	.	.	.	.
.	.	16A	Ev-	.	.	.	.	.	.
.	.	8A	-'ry	.	.	.	.	.	.
=19	=19	=19	=19	=19	=19	=19	=19	=19	=19
.	.	8gq	_	.	.	.	.	.	.
1iv	D:min	8a	time	1r	.	.	61.864	.	voice
.	.	8a	I	.	.	.	.	.	.
.	.	8a	think	.	.	.	.	.	.
.	.	8a	a	.	.	.	.	.	.
.	.	8dq	_	.	.	.	.	.	.
.	.	8e	bout	.	.	.	.	.	.
.	.	8d	it	.	.	.	.	.	.
.	.	8c	I	.	.	.	.	.	.
.	.	[8d	want	.	.	.	.	.	.
=20	=20	=20	=20	=20	=20	=20	=20	=20	=20
1V	E:maj	8d]	_	1r	.	.	63.752	.	voice
.	.	8d	to	.	.	.	.	.	.
.	.	8c	_	.	.	.	.	.	.
.	.	8dq	_	.	.	.	.	.	.
.	.	8e-	cry	.	.	A	.	.	.
.	.	8d	_	.	.	.	.	.	.
.	.	4r	.	.	.	.	.	.	.
.	.	8A	With	.	.	.	.	.	.
=21	=21	=21	=21	=21	=21	=21	=21	=21	=21
.	.	16AQ	_	.	.	.	.	.	.
.	.	16dQ	_	.	.	.	.	.	.
1i	A:min	4e	bombs	1r	.	.	65.641	.	voice
.	.	8d	and	.	.	.	.	.	.
.	.	8c	the	.	.	.	.	.	.
.	.	8d	de-	.	.	.	.	.	.
.	.	8A	-vil	.	.	.	.	.	.
.	.	8.r	.	.	.	.	.	.	.
.	.	16A	and	.	.	.	.	.	.
=22	=22	=22	=22	=22	=22	=22	=22	=22	=22
1-III	C:maj	6A	the	1r	.	.	67.53	.	voice
.	.	6A	kids	.	.	.	.	.	.
.	.	6A	keep	.	.	.	.	.	.
.	.	8c	co-	.	.	B	.	.	.
.	.	8d	-ming	.	.	.	.	.	.
.	.	8r	.	.	.	.	.	.	.
.	.	8A	no	.	.	.	.	.	.
=23	=23	=23	=23	=23	=23	=23	=23	=23	=23
.	.	8gq	_	.	.	.	.	.	.
1iv	D:min	8a	where	1r	.	.	69.419	.	voice
.	.	8a	to	.	.	.	.	.	.
.	.	8a	breathe	.	.	.	.	.	.
.	.	8dq	_	.	.	.	.	.	.
.	.	8e-	ea	.	.	.	.	.	.
.	.	8d	_	.	.	.	.	.	.
.	.	8c	sy,	.	.	.	.	.	.
.	.	8c	no	.	.	.	.	.	.
.	.	[8d	time	.	.	.	.	.	.
=24	=24	=24	=24	=24	=24	=24	=24	=24	=24
1V	E:maj	4d]	_	1r	.	.	71.308	.	voice
.	.	16d	to	.	.	.	.	.	.
.	.	8c	be	.	.	.	.	.	.
.	.	8dq	_	.	.	.	.	.	.
.	.	[16e	young	.	.	B	.	.	.
.	.	4.e]	_	.	.	.	.	.	.
.	.	8c	_	.	.	.	.	.	.
=25	=25	=25	=25	=25	=25	=25	=25	=25	=25
*>Letter>E	*>Letter>E	*>Letter>E	*>Letter>E	*>Letter>E	*>Letter>E	*>Letter>E	*>Letter>E	*>Letter>E	*>Letter>E
*>Label>Transition	*>Label>Transition	*>Label>Transition	*>Label>Transition	*>Label>Transition	*>Label>Transition	*>Label>Transition	*>Label>Transition	*>Label>Transition	*>Label>Transition
2.i	A:min	8d	_	1r	.	.	73.196	newline	electric guitar
.	.	8c	_	.	.	.	.	.	.
.	.	[2.A	_	.	.	.	.	.	.
4IVc	D:maj/5	.	.	.	.	.	74.614	.	electric guitar
=26	=26	=26	=26	=26	=26	=26	=26	=26	=26
1IVc	D:maj/5	4A]	_	1r	.	.	75.086	.	electric guitar
.	.	4r	.	.	.	.	.	.	.
.	.	2r	.	.	.	.	.	.	.
=27	=27	=27	=27	=27	=27	=27	=27	=27	=27
*	*	*clefG2	*	*	*	*	*	*	*
2.i	A:min	1r	.	1r	.	.	76.976	.	electric guitar
4IVc	D:maj/5	.	.	.	.	.	78.394	.	electric guitar
=28	=28	=28	=28	=28	=28	=28	=28	=28	=28
1IVc	D:maj/5	2r	.	1r	.	.	78.866	.	electric guitar
.	.	8r	.	.	.	.	.	.	.
.	.	8a	But	.	.	.	.	.	.
.	.	4a	I	.	.	.	.	.	.
=29	=29	=29	=29	=29	=29	=29	=29	=29	=29
*>Letter>D	*>Letter>D	*>Letter>D	*>Letter>D	*>Letter>D	*>Letter>D	*>Letter>D	*>Letter>D	*>Letter>D	*>Letter>D
*>Label>Prechorus	*>Label>Prechorus	*>Label>Prechorus	*>Label>Prechorus	*>Label>Prechorus	*>Label>Prechorus	*>Label>Prechorus	*>Label>Prechorus	*>Label>Prechorus	*>Label>Prechorus
2iv	D:min	8cc	tell	1r	.	.	80.756	newline	voice
.	.	8cc	my	.	.	.	.	.	.
.	.	8r	.	.	.	.	.	.	.
.	.	8dd	self	.	.	.	.	.	.
2v	E:min	8r	.	.	.	.	81.683	.	voice
.	.	8dd	that	.	.	.	.	.	.
.	.	8dd	I	.	.	.	.	.	.
.	.	8cc	was	.	.	.	.	.	.
=30	=30	=30	=30	=30	=30	=30	=30	=30	=30
2-III	C:maj	8ee	do-	1r	.	.	82.61	.	voice
.	.	8dd	-ing	.	.	.	.	.	.
.	.	8cc	al	.	.	.	.	.	.
.	.	8gq	_	.	.	.	.	.	.
.	.	[8a	right	.	.	A	.	.	.
2-VI	F:maj	8a]	_	.	.	.	83.536	.	voice
.	.	4r	.	.	.	.	.	.	.
.	.	8a	there's	.	.	.	.	.	.
=31	=31	=31	=31	=31	=31	=31	=31	=31	=31
1iv	D:min	8dd	no-	1r	.	.	84.463	.	voice
.	.	8cc	-thing	.	.	.	.	.	.
.	.	8dd	left	.	.	.	.	.	.
.	.	8cc	to	.	.	.	.	.	.
.	.	8dd	do	.	.	.	.	.	.
.	.	8cc	_	.	.	.	.	.	.
.	.	8cc	to	.	.	.	.	.	.
.	.	8dd#q	_	.	.	.	.	.	.
.	.	[8ee	night	.	.	A	.	.	.
=32	=32	=32	=32	=32	=32	=32	=32	=32	=32
1V	E:maj	4ee]	_	1r	.	.	86.316	.	voice
.	.	4r	.	.	.	.	.	.	.
.	.	8r	.	.	.	.	.	.	.
.	.	8a	but	.	.	.	.	.	.
.	.	8cc	go	.	.	.	.	.	.
.	.	16cc	cra	.	.	.	.	.	.
.	.	[16dd	_	.	.	.	.	.	.
=33	=33	=33	=33	=33	=33	=33	=33	=33	=33
*>Letter>B	*>Letter>B	*>Letter>B	*>Letter>B	*>Letter>B	*>Letter>B	*>Letter>B	*>Letter>B	*>Letter>B	*>Letter>B
*>Label>Chorus	*>Label>Chorus	*>Label>Chorus	*>Label>Chorus	*>Label>Chorus	*>Label>Chorus	*>Label>Chorus	*>Label>Chorus	*>Label>Chorus	*>Label>Chorus
1i	A:min	8.dd]	_	1r	.	.	88.169	newline	voice
.	.	16cc	_	.	.	.	.	.	.
.	.	8a	zy	.	.	.	.	.	.
.	.	[8a	on	.	.	.	.	.	.
.	.	8a]	_	.	.	.	.	.	.
.	.	8a	you!	.	.	.	.	.	.
.	.	8r	.	.	.	.	.	.	.
.	.	8r	.	.	.	.	.	.	.
=34	=34	=34	=34	=34	=34	=34	=34	=34	=34
2.-VI	F:maj	1r	.	1r	.	.	90.009	.	voice
4-VII	G:maj	.	.	.	.	.	91.389	.	voice
=35	=35	=35	=35	=35	=35	=35	=35	=35	=35
.	.	8ccq	_	.	.	.	.	.	.
1i	A:min	4dd	Cra	1r	.	.	91.849	.	voice
.	.	16cc	_	.	.	.	.	.	.
.	.	8.a	_	.	.	.	.	.	.
.	.	8a	zy	.	.	.	.	.	.
.	.	4a	on	.	.	.	.	.	.
.	.	[8cc	you	.	.	.	.	.	.
=36	=36	=36	=36	=36	=36	=36	=36	=36	=36
2.-VI	F:maj	4cc]	_	1r	.	.	93.688	.	voice
.	.	4r	.	.	.	.	.	.	.
.	.	8r	.	.	.	.	.	.	.
.	.	16a	Lem-	.	.	.	.	.	.
.	.	16a	-me	.	.	.	.	.	.
4-VII	G:maj	4cc	go	.	.	.	95.068	.	voice
=37	=37	=37	=37	=37	=37	=37	=37	=37	=37
1i	A:min	8cc	cra	1r	.	.	95.528	newline	voice
.	.	4dd	_	.	.	.	.	.	.
.	.	8cc	zy,	.	.	.	.	.	.
.	.	8.dd	cra-	.	.	.	.	.	.
.	.	16cc	-zy	.	.	.	.	.	.
.	.	8a	on	.	.	.	.	.	.
.	.	[8g	you	.	.	.	.	.	.
=38	=38	=38	=38	=38	=38	=38	=38	=38	=38
1-VII	G:maj	2.g]	_	1r	.	.	97.364	.	voice
.	.	8cc	a-	.	.	.	.	.	.
.	.	[8f	-oh	.	.	.	.	.	.
=39	=39	=39	=39	=39	=39	=39	=39	=39	=39
1-VI	F:maj	4.f_	_	1r	.	.	99.199	.	voice
.	.	16f]	_	.	.	.	.	.	.
.	.	[16e	_	.	.	.	.	.	.
.	.	2e_	_	.	.	.	.	.	.
=40	=40	=40	=40	=40	=40	=40	=40	=40	=40
*>Letter>C	*>Letter>C	*>Letter>C	*>Letter>C	*>Letter>C	*>Letter>C	*>Letter>C	*>Letter>C	*>Letter>C	*>Letter>C
*>Label>Verse	*>Label>Verse	*>Label>Verse	*>Label>Verse	*>Label>Verse	*>Label>Verse	*>Label>Verse	*>Label>Verse	*>Label>Verse	*>Label>Verse
1i	A:min	1e]	_	8d	love	.	101.035	newline	voice
.	.	.	.	8e	_	.	.	.	.
.	.	.	.	8d	is	.	.	.	.
.	.	.	.	8c	the	.	.	.	.
.	.	.	.	8dq	_	.	.	.	.
.	.	.	.	8e	ev-	.	.	.	.
.	.	.	.	8d	-'ning	.	.	.	.
.	.	.	.	4c	breeze	.	.	.	.
=41	=41	=41	=41	=41	=41	=41	=41	=41	=41
1-III	C:maj	1r	.	8~e	tou-	.	102.886	.	voice
.	.	.	.	8d	-ching	.	.	.	.
.	.	.	.	8c	your	.	.	.	.
.	.	.	.	8d	skin	C	.	.	.
.	.	.	.	4e	_	.	.	.	.
.	.	.	.	8r	.	.	.	.	.
.	.	.	.	8A	the	.	.	.	.
=42	=42	=42	=42	=42	=42	=42	=42	=42	=42
.	.	.	.	8gq	_	.	.	.	.
1iv	D:min	1r	.	8a	gen-	.	104.737	.	voice
.	.	.	.	8a	-tle	.	.	.	.
.	.	.	.	4g	sweet	.	.	.	.
.	.	.	.	8dq	_	.	.	.	.
.	.	.	.	8e	sing-	.	.	.	.
.	.	.	.	8d	-ing	.	.	.	.
.	.	.	.	8c	of	.	.	.	.
.	.	.	.	[8d	leaves	.	.	.	.
=43	=43	=43	=43	=43	=43	=43	=43	=43	=43
1V	E:maj	1r	.	8d]	_	.	106.588	.	voice
.	.	.	.	8d	in	.	.	.	.
.	.	.	.	8c	the	.	.	.	.
.	.	.	.	8dq	_	.	.	.	.
.	.	.	.	8e-	wind	C	.	.	.
.	.	.	.	4d	_	.	.	.	.
.	.	.	.	8r	.	.	.	.	.
.	.	.	.	8A	The	.	.	.	.
=44	=44	=44	=44	=44	=44	=44	=44	=44	=44
1i	A:min	1r	.	8e	whis-	.	108.44	.	voice
.	.	.	.	8d	-per	.	.	.	.
.	.	.	.	8c	tha	.	.	.	.
.	.	.	.	8d	calls	.	.	.	.
.	.	.	.	4c	_	.	.	.	.
.	.	.	.	8d	af-	.	.	.	.
.	.	.	.	8c	-ter	.	.	.	.
=45	=45	=45	=45	=45	=45	=45	=45	=45	=45
.	.	.	.	8dq	_	.	.	.	.
1-III	C:maj	1r	.	8e-	you	.	110.291	.	voice
.	.	.	.	8d	in	.	.	.	.
.	.	.	.	8c	the	.	.	.	.
.	.	.	.	8d	night	A	.	.	.
.	.	.	.	4e	_	.	.	.	.
.	.	.	.	8r	.	.	.	.	.
.	.	.	.	8A	and	.	.	.	.
=46	=46	=46	=46	=46	=46	=46	=46	=46	=46
1iv	D:min	1r	.	8a	kis-	.	112.142	.	voice
.	.	.	.	8a	-ses	.	.	.	.
.	.	.	.	8a	your	.	.	.	.
.	.	.	.	8dq	_	.	.	.	.
.	.	.	.	8e-	ear	.	.	.	.
.	.	.	.	8d	_	.	.	.	.
.	.	.	.	8c	in	.	.	.	.
.	.	.	.	8c	the	.	.	.	.
.	.	.	.	[8d	ear	.	.	.	.
=47	=47	=47	=47	=47	=47	=47	=47	=47	=47
1V	E:maj	1r	.	8d]	_	.	113.993	.	voice
.	.	.	.	8d	ly	.	.	.	.
.	.	.	.	8c	moon	.	.	.	.
.	.	.	.	8dq	_	.	.	.	.
.	.	.	.	[8e	light	A	.	.	.
.	.	.	.	4.e]	_	.	.	.	.
.	.	.	.	8c	_	.	.	.	.
=48	=48	=48	=48	=48	=48	=48	=48	=48	=48
*>Letter>E	*>Letter>E	*>Letter>E	*>Letter>E	*>Letter>E	*>Letter>E	*>Letter>E	*>Letter>E	*>Letter>E	*>Letter>E
*>Label>Transition	*>Label>Transition	*>Label>Transition	*>Label>Transition	*>Label>Transition	*>Label>Transition	*>Label>Transition	*>Label>Transition	*>Label>Transition	*>Label>Transition
2.i	A:min	1r	.	8d	_	.	115.844	newline	electric guitar
.	.	.	.	8c	_	.	.	.	.
.	.	.	.	[4A	_	.	.	.	.
.	.	.	.	4A]	_	.	.	.	.
*	*	*	*	*clefG2	*	*	*	*	*
4IVc	D:maj/5	.	.	[4a	_	.	117.245	.	electric guitar
=49	=49	=49	=49	=49	=49	=49	=49	=49	=49
1IVc	D:maj/5	1r	.	1a_	_	.	117.712	.	electric guitar
=50	=50	=50	=50	=50	=50	=50	=50	=50	=50
2.i	A:min	1r	.	2a]	_	.	119.579	.	electric guitar
.	.	.	.	2r	.	.	.	.	.
4IVc	D:maj/5	.	.	.	.	.	120.98	.	electric guitar
=51	=51	=51	=51	=51	=51	=51	=51	=51	=51
*	*	*clefG2	*	*	*	*	*	*	*
1IVc	D:maj/5	2r	.	1r	.	.	121.447	.	electric guitar
.	.	4r	.	.	.	.	.	.	.
.	.	8r	.	.	.	.	.	.	.
.	.	8a	And	.	.	.	.	.	.
=52	=52	=52	=52	=52	=52	=52	=52	=52	=52
*>Letter>D	*>Letter>D	*>Letter>D	*>Letter>D	*>Letter>D	*>Letter>D	*>Letter>D	*>Letter>D	*>Letter>D	*>Letter>D
*>Label>Prechorus	*>Label>Prechorus	*>Label>Prechorus	*>Label>Prechorus	*>Label>Prechorus	*>Label>Prechorus	*>Label>Prechorus	*>Label>Prechorus	*>Label>Prechorus	*>Label>Prechorus
2iv	D:min	8cc	you	1r	.	.	123.315	newline	voice
.	.	8cc	don't	.	.	.	.	.	.
.	.	8cc	need	.	.	.	.	.	.
.	.	8cc	to	.	.	.	.	.	.
2v	E:min	8dd	won-	.	.	.	124.235	.	voice
.	.	8dd	-der	.	.	.	.	.	.
.	.	8r	.	.	.	.	.	.	.
.	.	8cc	you're	.	.	.	.	.	.
=53	=53	=53	=53	=53	=53	=53	=53	=53	=53
2-III	C:maj	8ee	do-	1r	.	.	125.156	.	voice
.	.	4dd	-ing	.	.	.	.	.	.
.	.	[8cc	fine	.	.	A	.	.	.
2-VI	F:maj	8cc]	_	.	.	.	126.076	.	voice
.	.	4r	.	.	.	.	.	.	.
.	.	8~c	and	.	.	.	.	.	.
=54	=54	=54	=54	=54	=54	=54	=54	=54	=54
1iv	D:min	4dd	my	1r	.	.	126.997	.	voice
.	.	8dd	love,	.	.	.	.	.	.
.	.	6cc	the	.	.	.	.	.	.
.	.	6dd	plea-	.	.	.	.	.	.
.	.	6cc	-sure's	.	.	.	.	.	.
.	.	8dd#q	_	.	.	.	.	.	.
.	.	[8ee	mine,	.	.	A	.	.	.
=55	=55	=55	=55	=55	=55	=55	=55	=55	=55
1V	E:maj	2ee]	_	1r	.	.	128.838	.	voice
.	.	8ee	let	.	.	.	.	.	.
.	.	8ee	me	.	.	.	.	.	.
.	.	8gg	go	.	.	.	.	.	.
.	.	16dd#	cra	.	.	.	.	.	.
.	.	[16ee	_	.	.	.	.	.	.
=56	=56	=56	=56	=56	=56	=56	=56	=56	=56
*>Letter>B	*>Letter>B	*>Letter>B	*>Letter>B	*>Letter>B	*>Letter>B	*>Letter>B	*>Letter>B	*>Letter>B	*>Letter>B
*>Label>Chorus	*>Label>Chorus	*>Label>Chorus	*>Label>Chorus	*>Label>Chorus	*>Label>Chorus	*>Label>Chorus	*>Label>Chorus	*>Label>Chorus	*>Label>Chorus
1i	A:min	8.ee]	_	1r	.	.	130.679	newline	voice
.	.	16cc	_	.	.	.	.	.	.
.	.	8a	zy	.	.	.	.	.	.
.	.	[8a	on	.	.	.	.	.	.
.	.	8a]	_	.	.	.	.	.	.
.	.	4a	you	.	.	.	.	.	.
.	.	8r	.	.	.	.	.	.	.
=57	=57	=57	=57	=57	=57	=57	=57	=57	=57
2.-VI	F:maj	2r	.	1r	.	.	132.495	.	voice
.	.	8r	.	.	.	.	.	.	.
.	.	8ff#q	_	.	.	.	.	.	.
.	.	8.gg	Cra	.	.	.	.	.	.
4-VII	G:maj	.	.	.	.	.	133.857	.	voice
.	.	8ddq	_	.	.	.	.	.	.
.	.	8.ee	_	.	.	.	.	.	.
=58	=58	=58	=58	=58	=58	=58	=58	=58	=58
1i	A:min	16dd	_	1r	.	.	134.31	.	voice
.	.	16cc	_	.	.	.	.	.	.
.	.	8a	_	.	.	.	.	.	.
.	.	8a	zy	.	.	.	.	.	.
.	.	[8a	on	.	.	.	.	.	.
.	.	4.a]	_	.	.	.	.	.	.
.	.	8cc	you!	.	.	.	.	.	.
=59	=59	=59	=59	=59	=59	=59	=59	=59	=59
2.-VI	F:maj	2r	.	1r	.	.	136.126	.	voice
.	.	8r	.	.	.	.	.	.	.
.	.	16a	Lem-	.	.	.	.	.	.
.	.	16a	-me	.	.	.	.	.	.
4-VII	G:maj	4cc	go	.	.	.	137.488	.	voice
=60	=60	=60	=60	=60	=60	=60	=60	=60	=60
1i	A:min	8cc	cra	1r	.	.	137.942	newline	voice
.	.	4dd	_	.	.	.	.	.	.
.	.	8cc	zy,	.	.	.	.	.	.
.	.	8.dd	cra-	.	.	.	.	.	.
.	.	16cc	-zy	.	.	.	.	.	.
.	.	8a	on	.	.	.	.	.	.
.	.	[8g	you,	.	.	.	.	.	.
=61	=61	=61	=61	=61	=61	=61	=61	=61	=61
1-VII	G:maj	2.g]	_	1r	.	.	139.798	.	voice
.	.	8cc	a-	.	.	.	.	.	.
.	.	[8f	-oh	.	.	.	.	.	.
=62	=62	=62	=62	=62	=62	=62	=62	=62	=62
1-VI	F:maj	4.f_	_	1r	.	.	141.654	.	voice
.	.	16f]	_	.	.	.	.	.	.
.	.	[16e	_	.	.	.	.	.	.
.	.	2e_	_	.	.	.	.	.	.
=63	=63	=63	=63	=63	=63	=63	=63	=63	=63
1i	A:min	2e]	_	1r	.	.	143.51	.	voice
.	.	2r	.	.	.	.	.	.	.
=64	=64	=64	=64	=64	=64	=64	=64	=64	=64
*>Letter>F	*>Letter>F	*>Letter>F	*>Letter>F	*>Letter>F	*>Letter>F	*>Letter>F	*>Letter>F	*>Letter>F	*>Letter>F
*>Label>Bridge	*>Label>Bridge	*>Label>Bridge	*>Label>Bridge	*>Label>Bridge	*>Label>Bridge	*>Label>Bridge	*>Label>Bridge	*>Label>Bridge	*>Label>Bridge
*A:	*A:	*clefF4	*	*	*	*	*A:	*A:	*A:
.	.	8d#q	_	.	.	.	.	.	.
1vi7	F#:min7	4.e	Wild	1r	.	.	145.366	newline	voice
.	.	[8c#	man's	.	.	.	.	.	.
.	.	8c#]	_	.	.	.	.	.	.
.	.	4c#	world	.	.	.	.	.	.
.	.	8c#	is	.	.	.	.	.	.
=65	=65	=65	=65	=65	=65	=65	=65	=65	=65
1IV	D:maj	8f#	cry-	1r	.	.	147.181	.	voice
.	.	8e	-ing	.	.	.	.	.	.
.	.	4d	in	.	.	.	.	.	.
.	.	8e	pain	.	.	D	.	.	.
.	.	4f#	_	.	.	.	.	.	.
.	.	8r	.	.	.	.	.	.	.
=66	=66	=66	=66	=66	=66	=66	=66	=66	=66
*	*	*clefG2	*	*	*	*	*	*	*
1iii	C#:min	8g#	what	1r	.	.	148.996	.	voice
.	.	16e	you	.	.	.	.	.	.
.	.	[16e	gon	.	.	.	.	.	.
.	.	16e]	_	.	.	.	.	.	.
.	.	16c#	na	.	.	.	.	.	.
.	.	[8c#	do	.	.	.	.	.	.
.	.	8c#]	_	.	.	.	.	.	.
.	.	8e	when	.	.	.	.	.	.
.	.	8e	ev-	.	.	.	.	.	.
.	.	8e	-'ry-	.	.	.	.	.	.
=67	=67	=67	=67	=67	=67	=67	=67	=67	=67
1IV	D:maj	8a	-bo-	1r	.	.	150.811	.	voice
.	.	8g#	-dy's	.	.	.	.	.	.
.	.	4f#	in-	.	.	.	.	.	.
.	.	8.f#	-sane?	.	.	D	.	.	.
.	.	[16a	_	.	.	.	.	.	.
.	.	8a]	_	.	.	.	.	.	.
.	.	8f#	_	.	.	.	.	.	.
=68	=68	=68	=68	=68	=68	=68	=68	=68	=68
1iii	C#:min	8b	So	1r	.	.	152.627	newline	voice
.	.	16g#	a-	.	.	.	.	.	.
.	.	[16g#	-fraid	.	.	D	.	.	.
.	.	8g#]	_	.	.	.	.	.	.
.	.	8e	of	.	.	.	.	.	.
.	.	8e	one,	.	.	.	.	.	.
.	.	8e	who's	.	.	.	.	.	.
.	.	16e	so	.	.	.	.	.	.
.	.	8e	a-	.	.	.	.	.	.
.	.	16b	-fraid	.	.	D	.	.	.
=69	=69	=69	=69	=69	=69	=69	=69	=69	=69
1IV	D:maj	4.cc#	_	1r	.	.	154.459	.	voice
.	.	8b	of	.	.	.	.	.	.
.	.	8a	you	.	.	E	.	.	.
.	.	8r	.	.	.	.	.	.	.
.	.	8g#	what	.	.	.	.	.	.
.	.	8a	you	.	.	.	.	.	.
=70	=70	=70	=70	=70	=70	=70	=70	=70	=70
1iii	C#:min	16a	gon	1r	.	.	156.292	.	voice
.	.	4.b	_	.	.	.	.	.	.
.	.	16a	na	.	.	.	.	.	.
.	.	4.g#	do	.	.	E	.	.	.
.	.	16a	_	.	.	.	.	.	.
.	.	16g#	_	.	.	.	.	.	.
=71	=71	=71	=71	=71	=71	=71	=71	=71	=71
1ii7c	B:min7/5	[1d [1f#	_	1r	.	.	158.125	.	voice
=72	=72	=72	=72	=72	=72	=72	=72	=72	=72
1ii7	B:min7	2.d] 2.f#]	_	1r	.	.	159.958	newline	voice
.	.	[4c# [4e	_	.	.	.	.	.	.
=73	=73	=73	=73	=73	=73	=73	=73	=73	=73
1I	A:maj	1c#_ 1e_	_	1r	.	.	161.813	.	voice
=74	=74	=74	=74	=74	=74	=74	=74	=74	=74
1I	A:maj	2.c#] 2.e]	_	1r	.	.	163.669	.	voice
.	.	4r	.	.	.	.	.	.	.
=75	=75	=75	=75	=75	=75	=75	=75	=75	=75
1V	E:maj	1r	.	1e [1b	Ah	.	165.524	newline	voice
=76	=76	=76	=76	=76	=76	=76	=76	=76	=76
1V	E:maj	1r	.	[2c# 2f# 2b_	_	.	167.363	.	voice
.	.	.	.	2c#] 2g# 2b_	_	.	.	.	.
=77	=77	=77	=77	=77	=77	=77	=77	=77	=77
1V	E:maj	2r	.	1c# [1a 1b_	_	.	169.202	.	voice
.	.	8r	.	.	.	.	.	.	.
.	.	8ddq	_	.	.	.	.	.	.
.	.	[4.ee	Ooh	.	.	.	.	.	.
=78	=78	=78	=78	=78	=78	=78	=78	=78	=78
1V7	E:7	2.ee_	_	1d 1a] 1b]	_	.	171.041	.	voice
.	.	8ee]	_	.	.	.	.	.	.
.	.	8dd	cra-	.	.	.	.	.	.
=79	=79	=79	=79	=79	=79	=79	=79	=79	=79
*>Letter>B	*>Letter>B	*>Letter>B	*>Letter>B	*>Letter>B	*>Letter>B	*>Letter>B	*>Letter>B	*>Letter>B	*>Letter>B
*>Label>Chorus	*>Label>Chorus	*>Label>Chorus	*>Label>Chorus	*>Label>Chorus	*>Label>Chorus	*>Label>Chorus	*>Label>Chorus	*>Label>Chorus	*>Label>Chorus
*a:	*a:	*a:	*	*	*	*	*a:	*a:	*a:
1i	A:min	8ee	_	1r	.	.	172.88	newline	voice
.	.	16dd	_	.	.	.	.	.	.
.	.	16cc	_	.	.	.	.	.	.
.	.	8a	_	.	.	.	.	.	.
.	.	8a	-zy	.	.	.	.	.	.
.	.	4a	on	.	.	.	.	.	.
.	.	4a	you	.	.	.	.	.	.
=80	=80	=80	=80	=80	=80	=80	=80	=80	=80
2.-VI	F:maj	2r	.	1r	.	.	174.699	.	voice
.	.	8r	.	.	.	.	.	.	.
.	.	8ff#q	_	.	.	.	.	.	.
.	.	8.gg	cra	.	.	.	.	.	.
4-VII	G:maj	.	.	.	.	.	176.064	.	voice
.	.	8ddq	_	.	.	.	.	.	.
.	.	8.ee	_	.	.	.	.	.	.
=81	=81	=81	=81	=81	=81	=81	=81	=81	=81
1i	A:min	16dd	_	1r	.	.	176.519	.	voice
.	.	16cc	_	.	.	.	.	.	.
.	.	8a	_	.	.	.	.	.	.
.	.	8a	zy	.	.	.	.	.	.
.	.	[8a	on	.	.	.	.	.	.
.	.	4.a]	_	.	.	.	.	.	.
.	.	8cc	you!	.	.	.	.	.	.
=82	=82	=82	=82	=82	=82	=82	=82	=82	=82
2.-VI	F:maj	2r	.	1r	.	.	178.338	.	voice
.	.	8r	.	.	.	.	.	.	.
.	.	16a	Lem-	.	.	.	.	.	.
.	.	16a	-me	.	.	.	.	.	.
4-VII	G:maj	4cc	go	.	.	.	179.703	.	voice
=83	=83	=83	=83	=83	=83	=83	=83	=83	=83
1i	A:min	8cc	cra	1r	.	.	180.158	newline	voice
.	.	4dd	_	.	.	.	.	.	.
.	.	8cc	zy,	.	.	.	.	.	.
.	.	8.dd	cra-	.	.	.	.	.	.
.	.	16cc	-zy	.	.	.	.	.	.
.	.	8a	on	.	.	.	.	.	.
.	.	[8g	you,	.	.	.	.	.	.
=84	=84	=84	=84	=84	=84	=84	=84	=84	=84
1-VII	G:maj	2.g]	_	1r	.	.	181.952	.	voice
.	.	8~cc	a-	.	.	.	.	.	.
.	.	[8f	-oh	.	.	.	.	.	.
=85	=85	=85	=85	=85	=85	=85	=85	=85	=85
1-VI	F:maj	4.f_	_	2r	.	.	183.746	.	voice
.	.	16f]	_	.	.	.	.	.	.
.	.	[16e	_	.	.	.	.	.	.
.	.	2e_	_	4r	.	.	.	.	.
.	.	.	.	16r	.	.	.	.	.
.	.	.	.	8d	I	.	.	.	.
.	.	.	.	16e-	_	.	.	.	.
=86	=86	=86	=86	=86	=86	=86	=86	=86	=86
*>Letter>C	*>Letter>C	*>Letter>C	*>Letter>C	*>Letter>C	*>Letter>C	*>Letter>C	*>Letter>C	*>Letter>C	*>Letter>C
*>Label>Verse	*>Label>Verse	*>Label>Verse	*>Label>Verse	*>Label>Verse	*>Label>Verse	*>Label>Verse	*>Label>Verse	*>Label>Verse	*>Label>Verse
1i	A:min	4e]	_	4e-	_	.	185.541	newline	.
.	.	4r	.	8d	was	.	.	.	.
.	.	.	.	8c	a	.	.	.	.
.	.	2r	.	16e-	wil-	.	.	.	.
.	.	.	.	8d	-low	.	.	.	.
.	.	.	.	[16c	last	.	.	.	.
.	.	.	.	8c]	_	.	.	.	.
.	.	.	.	8d	night	.	.	.	.
=87	=87	=87	=87	=87	=87	=87	=87	=87	=87
1-III	C:maj	1r	.	8c	_	.	187.379	.	.
.	.	.	.	16d	in	.	.	.	.
.	.	.	.	[16c	a	.	.	.	.
.	.	.	.	8c]	_	.	.	.	.
.	.	.	.	8dq	_	.	.	.	.
.	.	.	.	[8e	dream	F	.	.	.
.	.	.	.	8e]	_	.	.	.	.
.	.	.	.	4r	.	.	.	.	.
.	.	.	.	8A	I	.	.	.	.
=88	=88	=88	=88	=88	=88	=88	=88	=88	=88
.	.	.	.	8gq	_	.	.	.	.
1iv	D:min	1r	.	8a	bent	.	189.217	.	.
.	.	.	.	[8g	down	.	.	.	.
.	.	.	.	8g]	_	.	.	.	.
.	.	.	.	8d	o	.	.	.	.
.	.	.	.	8e	_	.	.	.	.
.	.	.	.	16d	ver	.	.	.	.
.	.	.	.	[16c	a	.	.	.	.
.	.	.	.	8c]	_	.	.	.	.
.	.	.	.	[8d	clear	.	.	.	.
=89	=89	=89	=89	=89	=89	=89	=89	=89	=89
1V	E:maj	1r	.	4d]	_	.	191.056	.	.
.	.	.	.	16d	run-	.	.	.	.
.	.	.	.	8.c	-ning	.	.	.	.
.	.	.	.	8dq	_	.	.	.	.
.	.	.	.	8e	stream	F	.	.	.
.	.	.	.	8d	_	.	.	.	.
.	.	.	.	4r	.	.	.	.	.
=90	=90	=90	=90	=90	=90	=90	=90	=90	=90
1i	A:min	1r	.	8e	I	.	192.894	.	.
.	.	.	.	8d	sang	.	.	.	.
.	.	.	.	8c	a	.	.	.	.
.	.	.	.	8d	song	.	.	.	.
.	.	.	.	8c	_	.	.	.	.
.	.	.	.	16d	that	.	.	.	.
.	.	.	.	[16c	I	.	.	.	.
.	.	.	.	16c]	_	.	.	.	.
.	.	.	.	8e-q	_	.	.	.	.
.	.	.	.	[8.d	heard	.	.	.	.
=91	=91	=91	=91	=91	=91	=91	=91	=91	=91
1-III	C:maj	1r	.	8d]	_	.	194.733	.	.
.	.	.	.	8d	up	.	.	.	.
.	.	.	.	8c	a-	.	.	.	.
.	.	.	.	8d	-bove	G	.	.	.
.	.	.	.	4e	_	.	.	.	.
.	.	.	.	8.r	.	.	.	.	.
.	.	.	.	16A	And	.	.	.	.
=92	=92	=92	=92	=92	=92	=92	=92	=92	=92
1iv	D:min	1r	.	16A	you	.	196.571	.	.
*	*	*	*	*clefG2	*	*	*	*	*
.	.	.	.	16r	.	.	.	.	.
.	.	.	.	8a	kept	.	.	.	.
.	.	.	.	8a	me	.	.	.	.
.	.	.	.	16a	a-	.	.	.	.
.	.	.	.	16g	-live	.	.	.	.
.	.	.	.	4a	_	.	.	.	.
.	.	.	.	8a	with	.	.	.	.
.	.	.	.	8a	your	.	.	.	.
=93	=93	=93	=93	=93	=93	=93	=93	=93	=93
1V	E:maj	1r	.	8r	.	.	198.409	.	.
.	.	.	.	8cc	sweet	.	.	.	.
.	.	.	.	8r	.	.	.	.	.
.	.	.	.	8dd	flo-	.	.	.	.
.	.	.	.	8cc	-wing	.	.	.	.
.	.	.	.	8ddq	_	.	.	.	.
.	.	.	.	[4.ee	love	G	.	.	.
=94	=94	=94	=94	=94	=94	=94	=94	=94	=94
*>Letter>B	*>Letter>B	*>Letter>B	*>Letter>B	*>Letter>B	*>Letter>B	*>Letter>B	*>Letter>B	*>Letter>B	*>Letter>B
*>Label>Chorus	*>Label>Chorus	*>Label>Chorus	*>Label>Chorus	*>Label>Chorus	*>Label>Chorus	*>Label>Chorus	*>Label>Chorus	*>Label>Chorus	*>Label>Chorus
1i	A:min	1ee	Cra-	2.ee]	Cra	.	200.248	newline	.
.	.	.	.	8g	_	.	.	.	.
.	.	.	.	8g	zy!	.	.	.	.
=95	=95	=95	=95	=95	=95	=95	=95	=95	=95
2.-VI	F:maj	4~b	-!	1r	.	.	202.075	.	.
.	.	4r	.	.	.	.	.	.	.
.	.	8r	.	.	.	.	.	.	.
.	.	8a	Yeah!	.	.	.	.	.	.
4-VII	G:maj	4g	_	.	.	.	203.446	.	.
=96	=96	=96	=96	=96	=96	=96	=96	=96	=96
1i	A:min	8gg	Cra	1r	.	.	203.902	.	.
.	.	8ee	_	.	.	.	.	.	.
.	.	16dd	_	.	.	.	.	.	.
.	.	16cc	_	.	.	.	.	.	.
.	.	8a	_	.	.	.	.	.	.
.	.	8a	zy	.	.	.	.	.	.
.	.	4a	on	.	.	.	.	.	.
.	.	8a	you	.	.	.	.	.	.
=97	=97	=97	=97	=97	=97	=97	=97	=97	=97
2.-VI	F:maj	2r	.	1r	.	.	205.73	.	.
.	.	8r	.	.	.	.	.	.	.
.	.	16a	Lem-	.	.	.	.	.	.
.	.	16a	-me	.	.	.	.	.	.
4-VII	G:maj	4cc	go	.	.	.	207.1	.	.
=98	=98	=98	=98	=98	=98	=98	=98	=98	=98
1i	A:min	8cc	cra	1r	.	.	207.557	newline	.
.	.	4dd	_	.	.	.	.	.	.
.	.	8cc	zy,	.	.	.	.	.	.
.	.	8.dd	cra-	.	.	.	.	.	.
.	.	16cc	-zy	.	.	.	.	.	.
.	.	8a	on	.	.	.	.	.	.
.	.	[8g	you	.	.	.	.	.	.
=99	=99	=99	=99	=99	=99	=99	=99	=99	=99
1-VII	G:maj	2.g]	_	1r	.	.	209.394	.	.
.	.	8cc	a-	.	.	.	.	.	.
.	.	[8f	-oh	.	.	.	.	.	.
=100	=100	=100	=100	=100	=100	=100	=100	=100	=100
1-VI	F:maj	4f_	_	1r	.	.	211.232	.	.
.	.	8.f]	_	.	.	.	.	.	.
.	.	16e	_	.	.	.	.	.	.
.	.	8r	.	.	.	.	.	.	.
.	.	8ddq	_	.	.	.	.	.	.
.	.	4.ee	cra	.	.	.	.	.	.
=101	=101	=101	=101	=101	=101	=101	=101	=101	=101
*>Letter>B	*>Letter>B	*>Letter>B	*>Letter>B	*>Letter>B	*>Letter>B	*>Letter>B	*>Letter>B	*>Letter>B	*>Letter>B
*>Label>Chorus	*>Label>Chorus	*>Label>Chorus	*>Label>Chorus	*>Label>Chorus	*>Label>Chorus	*>Label>Chorus	*>Label>Chorus	*>Label>Chorus	*>Label>Chorus
.	.	8ddq	_	.	.	.	.	.	.
1i	A:min	6ee	_	1r	.	.	213.069	newline	.
.	.	8ddq	_	.	.	.	.	.	.
.	.	12ee	_	.	.	.	.	.	.
.	.	12dd	_	.	.	.	.	.	.
.	.	12cc	_	.	.	.	.	.	.
.	.	[12a	zy	.	.	.	.	.	.
.	.	8a]	_	.	.	.	.	.	.
.	.	[4.a	on	.	.	.	.	.	.
=102	=102	=102	=102	=102	=102	=102	=102	=102	=102
2.-VI	F:maj	8a]	_	1r	.	.	214.868	.	.
.	.	8a	you!	.	.	.	.	.	.
.	.	4r	.	.	.	.	.	.	.
.	.	8r	.	.	.	.	.	.	.
.	.	8ff#q	_	.	.	.	.	.	.
.	.	8.gg	Cra	.	.	.	.	.	.
4-VII	G:maj	.	.	.	.	.	216.218	.	.
.	.	8ddq	_	.	.	.	.	.	.
.	.	8.ee	_	.	.	.	.	.	.
=103	=103	=103	=103	=103	=103	=103	=103	=103	=103
1i	A:min	16dd	_	1r	.	.	216.668	.	.
.	.	16cc	_	.	.	.	.	.	.
.	.	8a	_	.	.	.	.	.	.
.	.	8a	zy	.	.	.	.	.	.
.	.	[8a	on	.	.	.	.	.	.
.	.	4.a]	_	.	.	.	.	.	.
.	.	8cc	you	.	.	.	.	.	.
=104	=104	=104	=104	=104	=104	=104	=104	=104	=104
2.-VI	F:maj	2r	.	1r	.	.	218.467	.	.
.	.	8r	.	.	.	.	.	.	.
.	.	16a	Lem-	.	.	.	.	.	.
.	.	16a	-me	.	.	.	.	.	.
4-VII	G:maj	4cc	go	.	.	.	219.817	.	.
=105	=105	=105	=105	=105	=105	=105	=105	=105	=105
1i	A:min	8cc	cra	1r	.	.	220.267	newline	voice
.	.	4dd	_	.	.	.	.	.	.
.	.	8cc	zy,	.	.	.	.	.	.
.	.	8.dd	cra-	.	.	.	.	.	.
.	.	16cc	-zy	.	.	.	.	.	.
.	.	8a	on	.	.	.	.	.	.
.	.	[8g	you	.	.	.	.	.	.
=106	=106	=106	=106	=106	=106	=106	=106	=106	=106
1-VII	G:maj	1g]	_	1r	.	.	222.082	.	voice
=107	=107	=107	=107	=107	=107	=107	=107	=107	=107
1-VI	F:maj	2f	oh	1r	.	.	223.898	.	voice
.	.	[2e	yeah	.	.	.	.	.	.
=108	=108	=108	=108	=108	=108	=108	=108	=108	=108
*>Letter>B	*>Letter>B	*>Letter>B	*>Letter>B	*>Letter>B	*>Letter>B	*>Letter>B	*>Letter>B	*>Letter>B	*>Letter>B
*>Label>Solo	*>Label>Solo	*>Label>Solo	*>Label>Solo	*>Label>Solo	*>Label>Solo	*>Label>Solo	*>Label>Solo	*>Label>Solo	*>Label>Solo
1i	A:min	2e]	_	1r	.	.	225.713	newline	electric guitar
.	.	2r	.	.	.	.	.	.	.
=109	=109	=109	=109	=109	=109	=109	=109	=109	=109
2.-VI	F:maj	1r	.	1r	.	.	227.523	.	electric guitar
4-VII	G:maj	.	.	.	.	.	228.881	.	electric guitar
=110	=110	=110	=110	=110	=110	=110	=110	=110	=110
1i	A:min	1r	.	1r	.	.	229.333	.	electric guitar
=111	=111	=111	=111	=111	=111	=111	=111	=111	=111
2.-VI	F:maj	1r	.	1r	.	.	231.143	.	electric guitar
4-VII	G:maj	.	.	.	.	.	232.5	.	electric guitar
=112	=112	=112	=112	=112	=112	=112	=112	=112	=112
1i	A:min	1r	.	1r	.	.	232.953	newline	electric guitar
=113	=113	=113	=113	=113	=113	=113	=113	=113	=113
1-VII	G:maj	1r	.	1r	.	.	234.75	.	electric guitar
=114	=114	=114	=114	=114	=114	=114	=114	=114	=114
1-VI	F:maj	1r	.	1r	.	.	236.547	.	electric guitar
=115	=115	=115	=115	=115	=115	=115	=115	=115	=115
1i	A:min	1r	.	1r	.	.	238.344	.	electric guitar
=116	=116	=116	=116	=116	=116	=116	=116	=116	=116
*>Letter>F	*>Letter>F	*>Letter>F	*>Letter>F	*>Letter>F	*>Letter>F	*>Letter>F	*>Letter>F	*>Letter>F	*>Letter>F
*>Label>Solo	*>Label>Solo	*>Label>Solo	*>Label>Solo	*>Label>Solo	*>Label>Solo	*>Label>Solo	*>Label>Solo	*>Label>Solo	*>Label>Solo
*A:	*A:	*A:	*	*	*	*	*A:	*A:	*A:
1vi7	F#:min7	1r	.	1r	.	.	240.141	newline	electric guitar
=117	=117	=117	=117	=117	=117	=117	=117	=117	=117
1IV	D:maj	1r	.	1r	.	.	241.982	.	electric guitar
=118	=118	=118	=118	=118	=118	=118	=118	=118	=118
1iii	C#:min	1r	.	1r	.	.	243.823	.	electric guitar
=119	=119	=119	=119	=119	=119	=119	=119	=119	=119
1IV	D:maj	1r	.	1r	.	.	245.664	.	electric guitar
=120	=120	=120	=120	=120	=120	=120	=120	=120	=120
1iii	C#:min	1r	.	1r	.	.	247.505	newline	electric guitar
=121	=121	=121	=121	=121	=121	=121	=121	=121	=121
1IV	D:maj	1r	.	1r	.	.	249.325	.	electric guitar
=122	=122	=122	=122	=122	=122	=122	=122	=122	=122
1iii	C#:min	1r	.	1r	.	.	251.145	.	electric guitar
=123	=123	=123	=123	=123	=123	=123	=123	=123	=123
1ii7c	B:min7/5	1r	.	1r	.	.	252.966	.	electric guitar
=124	=124	=124	=124	=124	=124	=124	=124	=124	=124
1ii7	B:min7	1r	.	1r	.	.	254.786	newline	electric guitar
=125	=125	=125	=125	=125	=125	=125	=125	=125	=125
1I	A:maj	1r	.	1r	.	.	256.643	.	electric guitar
=126	=126	=126	=126	=126	=126	=126	=126	=126	=126
1I	A:maj	1r	.	1r	.	.	258.499	.	electric guitar
=127	=127	=127	=127	=127	=127	=127	=127	=127	=127
1V	E:maj	1r	.	1e [1b	Ah!	.	260.356	newline	electric guitar
=128	=128	=128	=128	=128	=128	=128	=128	=128	=128
1V	E:maj	1r	.	2c# 2f# 2b_	_	.	262.163	.	electric guitar
.	.	.	.	2c# 2g# 2b]	_	.	.	.	.
=129	=129	=129	=129	=129	=129	=129	=129	=129	=129
1V	E:maj	1r	.	1c# [1a [1b	_	.	263.97	.	electric guitar
=130	=130	=130	=130	=130	=130	=130	=130	=130	=130
1V7	E:7	1r	.	1d 1a] 1b]	_	.	265.777	.	electric guitar
=131	=131	=131	=131	=131	=131	=131	=131	=131	=131
*>Letter>B	*>Letter>B	*>Letter>B	*>Letter>B	*>Letter>B	*>Letter>B	*>Letter>B	*>Letter>B	*>Letter>B	*>Letter>B
*>Label>Chorus	*>Label>Chorus	*>Label>Chorus	*>Label>Chorus	*>Label>Chorus	*>Label>Chorus	*>Label>Chorus	*>Label>Chorus	*>Label>Chorus	*>Label>Chorus
*a:	*a:	*a:	*	*	*	*	*a:	*a:	*a:
.	.	8ddq	_	.	.	.	.	.	.
1i	A:min	8ee	Cra	1r	.	.	267.584	newline	voice
.	.	16dd	_	.	.	.	.	.	.
.	.	16cc	_	.	.	.	.	.	.
.	.	8a	zy	.	.	.	.	.	.
.	.	[8a	on	.	.	.	.	.	.
.	.	4.a]	_	.	.	.	.	.	.
.	.	8a	you	.	.	.	.	.	.
=132	=132	=132	=132	=132	=132	=132	=132	=132	=132
2.-VI	F:maj	2r	.	1r	.	.	269.401	.	voice
.	.	4r	.	.	.	.	.	.	.
.	.	8ffq	_	.	.	.	.	.	.
4-VII	G:maj	8gg	Cra	.	.	.	270.764	.	voice
.	.	8ddq	_	.	.	.	.	.	.
.	.	8ee	_	.	.	.	.	.	.
=133	=133	=133	=133	=133	=133	=133	=133	=133	=133
1i	A:min	16dd	_	1r	.	.	271.218	.	voice
.	.	16cc	_	.	.	.	.	.	.
.	.	8a	_	.	.	.	.	.	.
.	.	8a	zy	.	.	.	.	.	.
.	.	[8a	on	.	.	.	.	.	.
.	.	4.a]	_	.	.	.	.	.	.
.	.	8cc	you	.	.	.	.	.	.
=134	=134	=134	=134	=134	=134	=134	=134	=134	=134
2.-VI	F:maj	2r	.	1r	.	.	273.035	.	voice
.	.	8r	.	.	.	.	.	.	.
.	.	16a	Lem-	.	.	.	.	.	.
.	.	16a	-me	.	.	.	.	.	.
4-VII	G:maj	4cc	go	.	.	.	274.397	.	voice
=135	=135	=135	=135	=135	=135	=135	=135	=135	=135
1i	A:min	8cc	cra	1r	.	.	274.851	newline	voice
.	.	4dd	_	.	.	.	.	.	.
.	.	8cc	zy,	.	.	.	.	.	.
.	.	8.dd	cra-	.	.	.	.	.	.
.	.	16cc	-zy	.	.	.	.	.	.
.	.	8a	on	.	.	.	.	.	.
.	.	[8g	you	.	.	.	.	.	.
=136	=136	=136	=136	=136	=136	=136	=136	=136	=136
.	.	8~aq	_	.	.	.	.	.	.
1-VII	G:maj	1g]	_	1r	.	.	276.668	.	voice
=137	=137	=137	=137	=137	=137	=137	=137	=137	=137
1-VI	F:maj	[4.f	-oh	1r	.	.	278.485	.	voice
.	.	16f]	_	.	.	.	.	.	.
.	.	[16e	_	.	.	.	.	.	.
.	.	2e_	_	.	.	.	.	.	.
=138	=138	=138	=138	=138	=138	=138	=138	=138	=138
1i	A:min	1e]	_	1r	.	.	280.301	.	voice
1r;	N	1r;	.	r;	.	.	290.293	.	r
1r;	N	1r;	.	r;	.	.	291.51	.	r
*-	*-	*-	*-	*-	*-	*-	*-	*-	*-
!!!BillboardChartDate: 1978/02/11, 1976/06/12
!!!BillboardPeak: 35, 35
!!!BillboardWeeksOnChart: 19, 19
!!!COC: Heart
!!!ENC: Nathaniel Condit-Schultz
!!!EST: Awating manual error checking and editing.
!!!OTL: Crazy On You
!!!RDF**harte: Chris Harte's syntax, used by MIREX
!!!RDF**harmony: **recip + pitch class of root + harmonic quality
!!!RDF**leadinstrument: original McGill primary instrumentation annotation
!!!RDF**phrase: newline = linebreak in original McGill transcription
!!!RDF**timestamp: McGill audio timestamp in seconds
!!!RDT: 2017/01/12/
!!!SampleActualRank: 100,  49
!!!SampleID#: 33, 73
!!!SampleTargetRank: 99, 49
!!!MBID: 6bbd8560-58e8-4ae0-a04f-5a675e477bd2
